static/assets/img/icons/theme/shopping/chart-bar-1.svg

<svg width="24px" height="24px" viewBox="0 0 24 24" version="1.1" xmlns="http://www.w3.org/2000/svg" xmlns:xlink="http://www.w3.org/1999/xlink">
    <title>Icon For Chart-bar#1</title>
    <g stroke="none" stroke-width="1" fill="none" fill-rule="evenodd">
        <rect opacity="0" x="0" y="0" width="24" height="24"></rect>
        <rect fill="#000000" opacity="0.3" x="12" y="4" width="3" height="13" rx="1.5"></rect>
        <rect fill="#000000" opacity="0.3" x="7" y="9" width="3" height="8" rx="1.5"></rect>
        <path d="M5,19 L20,19 C20.5522847,19 21,19.4477153 21,20 C21,20.5522847 20.5522847,21 20,21 L4,21 C3.44771525,21 3,20.5522847 3,20 L3,4 C3,3.44771525 3.44771525,3 4,3 C4.55228475,3 5,3.44771525 5,4 L5,19 Z" fill="#000000" fill-rule="nonzero"></path>
        <rect fill="#000000" opacity="0.3" x="17" y="11" width="3" height="6" rx="1.5"></rect>
    </g>
</svg>

<svg height="24" viewBox="0 0 24 24" width="24" xmlns="http://www.w3.org/2000/svg"><g fill="none" fill-rule="evenodd"><path d="m0 0h24v24h-24z" opacity="0"/><g fill="#000"><rect height="13" opacity=".3" rx="1.5" width="3" x="12" y="4"/><rect height="8" opacity=".3" rx="1.5" width="3" x="7" y="9"/><path d="m5 19h15c.5522847 0 1 .4477153 1 1s-.4477153 1-1 1h-16c-.55228475 0-1-.4477153-1-1v-16c0-.55228475.44771525-1 1-1s1 .44771525 1 1z" fill-rule="nonzero"/><rect height="6" opacity=".3" rx="1.5" width="3" x="17" y="11"/></g></g></svg>
